icons/1_Primary/Skrill.svg

<svg width="1024" height="1024" fill="none" xmlns="http://www.w3.org/2000/svg"><g clip-path="url(#a)"><path d="M512 1024c282.77 0 512-229.23 512-512S794.77 0 512 0 0 229.23 0 512s229.23 512 512 512Z" fill="#8C72BD"/><path d="m701 424 53-10 .216 205.24-53.286-.239L701 424Zm78 0v195l53 .126v-205.13L779 424ZM625 619h53V469h-53v150ZM273.06 490.57c-6.773-.463-22.058-1.555-22.058-15.575 0-16.959 20.357-16.843 31-16.5 33.836 1.092 62 14.5 62 14.5v-47s-25.442-10.928-71-11c-60.06-.095-81 34.039-81 64 0 17.298 7.243 59.312 76 64 5.867.4 21.5.415 21.5 15 0 11.985-12.163 19-33.5 19-33.445 0-60-11-60-11l-.162 47s28.398 9 71.162 9c58.705 0 84.86-34.099 84.86-67 0-37.31-29.353-61.044-78.8-64.425h-.002ZM521 534.995l-.025 84H575v-69c0-26.343 2.728-36.982 34-38v-44c-38.315-4.42-88 6.682-88 67Zm-70-66c-12.254 32.19-31 52-31 52v-107l-55 11v194h55v-60s15.25 21.625 24 60h66s-7.169-27.739-35-77c27.37-35.631 39-73 39-73h-63Zm201-14c14.451 0 26-11.528 26-26s-11.437-26-26-26c-14.451 0-26 11.415-26 26 0 14.472 11.549 26 26 26Z" fill="#fff"/></g><defs><clipPath id="a"><path fill="#fff" d="M0 0h1024v1024H0z"/></clipPath></defs></svg>

<svg width="1024" height="1024" viewBox="0 0 1024 1024" fill="none" xmlns="http://www.w3.org/2000/svg">
<g clip-path="url(#clip0_2_3480)">
<path d="M512 1024C794.77 1024 1024 794.77 1024 512C1024 229.23 794.77 0 512 0C229.23 0 0 229.23 0 512C0 794.77 229.23 1024 512 1024Z" fill="#8C72BD"/>
<path d="M701 424L754 414L754.216 619.24L700.93 619.001L701 424ZM779 424V619L832 619.126V413.996L779 424ZM625 619H678V469H625V619ZM273.06 490.57C266.287 490.107 251.002 489.015 251.002 474.995C251.002 458.036 271.359 458.152 282.002 458.495C315.838 459.587 344.002 472.995 344.002 472.995V425.995C344.002 425.995 318.56 415.067 273.002 414.995C212.942 414.9 192.002 449.034 192.002 478.995C192.002 496.293 199.245 538.307 268.002 542.995C273.869 543.395 289.502 543.41 289.502 557.995C289.502 569.98 277.339 576.995 256.002 576.995C222.557 576.995 196.002 565.995 196.002 565.995L195.84 612.995C195.84 612.995 224.238 621.995 267.002 621.995C325.707 621.995 351.862 587.896 351.862 554.995C351.862 517.685 322.509 493.951 273.062 490.57H273.06ZM521 534.995L520.975 618.995H575V549.995C575 523.652 577.728 513.013 609 511.995V467.995C570.685 463.575 521 474.677 521 534.995ZM451 468.995C438.746 501.185 420 520.995 420 520.995V413.995L365 424.995V618.995H420V558.995C420 558.995 435.25 580.62 444 618.995H510C510 618.995 502.831 591.256 475 541.995C502.37 506.364 514 468.995 514 468.995H451ZM652 454.995C666.451 454.995 678 443.467 678 428.995C678 414.523 666.563 402.995 652 402.995C637.549 402.995 626 414.41 626 428.995C626 443.467 637.549 454.995 652 454.995Z" fill="white"/>
</g>
<defs>
<clipPath id="clip0_2_3480">
<rect width="1024" height="1024" fill="white"/>
</clipPath>
</defs>
</svg>
